NeuralAmpModeler/resources/img/IRIconOn.svg

<svg viewBox="0 0 63 62" xmlns="http://www.w3.org/2000/svg" xml:space="preserve" style="fill-rule:evenodd;clip-rule:evenodd;stroke-linejoin:round;stroke-miterlimit:2">
    <path d="M5.478 22.583c0-1.556-1.06-2.82-2.367-2.82H3.1c-1.307 0-2.367 1.264-2.367 2.82v16.976c0 1.557 1.06 2.82 2.367 2.82h.011c1.307 0 2.367-1.263 2.367-2.82V22.583Z" style="fill:#fff" transform="matrix(1.19122 0 0 1 -.594 0)"/>
    <path d="M5.478 22.689c0-1.615-1.06-2.926-2.367-2.926H3.1c-1.307 0-2.367 1.311-2.367 2.926v16.764c0 1.615 1.06 2.926 2.367 2.926h.011c1.307 0 2.367-1.311 2.367-2.926V22.689Z" style="fill:#fff" transform="matrix(1.23596 0 0 1 15.267 0)"/>
    <path d="M5.478 23.002c0-1.788-1.06-3.239-2.367-3.239H3.1c-1.307 0-2.367 1.451-2.367 3.239V39.14c0 1.788 1.06 3.239 2.367 3.239h.011c1.307 0 2.367-1.451 2.367-3.239V23.002Z" style="fill:#fff" transform="matrix(1.3683 0 0 1 47.173 0)"/>
    <path d="M5.478 21.542c0-.982-1.06-1.779-2.367-1.779H3.1c-1.307 0-2.367.797-2.367 1.779v19.059c0 .981 1.06 1.778 2.367 1.778h.011c1.307 0 2.367-.797 2.367-1.778V21.542Z" style="fill:#fff" transform="matrix(1.3683 0 0 1.82121 31.18 -25.19)"/>
    <path d="M5.478 23.955c0-2.314-1.06-4.192-2.367-4.192H3.1c-1.307 0-2.367 1.878-2.367 4.192v14.232c0 2.314 1.06 4.192 2.367 4.192h.011c1.307 0 2.367-1.878 2.367-4.192V23.955Z" style="fill:#fff" transform="matrix(1.3683 0 0 .77268 39.253 7.041)"/>
    <path d="M5.478 20.95c0-.655-1.06-1.187-2.367-1.187H3.1c-1.307 0-2.367.532-2.367 1.187v20.242c0 .655 1.06 1.187 2.367 1.187h.011c1.307 0 2.367-.532 2.367-1.187V20.95Z" style="fill:#fff" transform="matrix(1.3683 0 0 2.72972 23.297 -53.802)"/>
    <path d="M5.478 28.676c0-4.919-1.06-8.913-2.367-8.913H3.1c-1.307 0-2.367 3.994-2.367 8.913v4.79c0 4.919 1.06 8.913 2.367 8.913h.011c1.307 0 2.367-3.994 2.367-8.913v-4.79Z" style="fill:#fff" transform="matrix(1.3683 0 0 .36342 55.594 19.092)"/>
    <path d="M5.478 21.557c0-.99-1.06-1.794-2.365-1.794h-.015c-1.305 0-2.365.804-2.365 1.794v19.028c0 .99 1.06 1.794 2.365 1.794h.015c1.305 0 2.365-.804 2.365-1.794V21.557Z" style="fill:#fff" transform="matrix(1.33725 0 0 1.76341 6.953 -23.605)"/>
</svg>

<?xml version="1.0" encoding="UTF-8" standalone="no"?>
<!DOCTYPE svg PUBLIC "-//W3C//DTD SVG 1.1//EN" "http://www.w3.org/Graphics/SVG/1.1/DTD/svg11.dtd">
<svg width="100%" height="100%" viewBox="0 0 63 62" version="1.1" xmlns="http://www.w3.org/2000/svg" xmlns:xlink="http://www.w3.org/1999/xlink" xml:space="preserve" xmlns:serif="http://www.serif.com/" style="fill-rule:evenodd;clip-rule:evenodd;stroke-linejoin:round;stroke-miterlimit:2;">
    <g transform="matrix(1.19122,0,0,1,-0.59384,0)">
        <path d="M5.478,22.583C5.478,21.027 4.418,19.763 3.111,19.763L3.1,19.763C1.793,19.763 0.733,21.027 0.733,22.583L0.733,39.559C0.733,41.116 1.793,42.379 3.1,42.379L3.111,42.379C4.418,42.379 5.478,41.116 5.478,39.559L5.478,22.583Z" style="fill:white;"/>
    </g>
    <g transform="matrix(1.23596,0,0,1,15.2672,0)">
        <path d="M5.478,22.689C5.478,21.074 4.418,19.763 3.111,19.763L3.1,19.763C1.793,19.763 0.733,21.074 0.733,22.689L0.733,39.453C0.733,41.068 1.793,42.379 3.1,42.379L3.111,42.379C4.418,42.379 5.478,41.068 5.478,39.453L5.478,22.689Z" style="fill:white;"/>
    </g>
    <g transform="matrix(1.3683,0,0,1,47.1734,0)">
        <path d="M5.478,23.002C5.478,21.214 4.418,19.763 3.111,19.763L3.1,19.763C1.793,19.763 0.733,21.214 0.733,23.002L0.733,39.14C0.733,40.928 1.793,42.379 3.1,42.379L3.111,42.379C4.418,42.379 5.478,40.928 5.478,39.14L5.478,23.002Z" style="fill:white;"/>
    </g>
    <g transform="matrix(1.3683,0,0,1.82121,31.1798,-25.1895)">
        <path d="M5.478,21.542C5.478,20.56 4.418,19.763 3.111,19.763L3.1,19.763C1.793,19.763 0.733,20.56 0.733,21.542L0.733,40.601C0.733,41.582 1.793,42.379 3.1,42.379L3.111,42.379C4.418,42.379 5.478,41.582 5.478,40.601L5.478,21.542Z" style="fill:white;"/>
    </g>
    <g transform="matrix(1.3683,0,0,0.772678,39.2533,7.0412)">
        <path d="M5.478,23.955C5.478,21.641 4.418,19.763 3.111,19.763L3.1,19.763C1.793,19.763 0.733,21.641 0.733,23.955L0.733,38.187C0.733,40.501 1.793,42.379 3.1,42.379L3.111,42.379C4.418,42.379 5.478,40.501 5.478,38.187L5.478,23.955Z" style="fill:white;"/>
    </g>
    <g transform="matrix(1.3683,0,0,2.72972,23.2972,-53.8018)">
        <path d="M5.478,20.95C5.478,20.295 4.418,19.763 3.111,19.763L3.1,19.763C1.793,19.763 0.733,20.295 0.733,20.95L0.733,41.192C0.733,41.847 1.793,42.379 3.1,42.379L3.111,42.379C4.418,42.379 5.478,41.847 5.478,41.192L5.478,20.95Z" style="fill:white;"/>
    </g>
    <g transform="matrix(1.3683,0,0,0.363416,55.5937,19.0919)">
        <path d="M5.478,28.676C5.478,23.757 4.418,19.763 3.111,19.763L3.1,19.763C1.793,19.763 0.733,23.757 0.733,28.676L0.733,33.466C0.733,38.385 1.793,42.379 3.1,42.379L3.111,42.379C4.418,42.379 5.478,38.385 5.478,33.466L5.478,28.676Z" style="fill:white;"/>
    </g>
    <g transform="matrix(1.33725,0,0,1.76341,6.95266,-23.6049)">
        <path d="M5.478,21.557C5.478,20.567 4.418,19.763 3.113,19.763L3.098,19.763C1.793,19.763 0.733,20.567 0.733,21.557L0.733,40.585C0.733,41.575 1.793,42.379 3.098,42.379L3.113,42.379C4.418,42.379 5.478,41.575 5.478,40.585L5.478,21.557Z" style="fill:white;"/>
    </g>
</svg>
